src/images/kapusta.svg

<svg width="183" height="47" viewBox="0 0 183 47" fill="none" xmlns="http://www.w3.org/2000/svg">
<path fill-rule="evenodd" clip-rule="evenodd" d="M8.68835 26.5354L12.2528 22.6244L19.9263 36.0406H30.2236L18.045 15.941L30.2236 0H19.4807L11.7082 11.3122L8.68835 15.8915V0H0V36.0406H8.68835V26.5354ZM46.3379 33.6395C46.5689 34.6957 46.833 35.496 47.13 36.0406H55.4718V35.6198C54.7457 34.3161 54.3662 32.4349 54.3332 29.9761V18.1193C54.2836 15.2149 53.2688 12.9294 51.2885 11.2627C49.3083 9.59597 46.6102 8.76261 43.1942 8.76261C39.7783 8.76261 36.9647 9.57122 34.7534 11.1884C32.5586 12.8056 31.4612 14.9096 31.4612 17.5005H39.8031C39.8031 15.5532 40.7932 14.5796 42.7734 14.5796C44.9022 14.5796 45.9666 15.809 45.9666 18.2678V19.6788H43.3923C39.2997 19.6788 36.1808 20.4213 34.0356 21.9065C31.8903 23.3917 30.8177 25.5865 30.8177 28.4909C30.8177 30.8012 31.7005 32.7237 33.4663 34.2584C35.232 35.7765 37.3773 36.5356 39.9021 36.5356C42.6579 36.5356 44.8032 35.5703 46.3379 33.6395ZM44.4814 29.9266C43.8048 30.3721 42.9467 30.5949 41.9071 30.5949C41.115 30.5949 40.4631 30.3639 39.9516 29.9018C39.44 29.4232 39.1842 28.8044 39.1842 28.0453C39.1842 25.438 40.6364 24.1343 43.5408 24.1343H45.9666V28.4166C45.6696 28.9777 45.1745 29.481 44.4814 29.9266ZM83.8389 22.8472C83.8389 27.0057 82.8983 30.3309 81.017 32.8227C79.1523 35.298 76.6275 36.5356 73.4426 36.5356C70.9838 36.5356 68.9623 35.6363 67.3781 33.8376V46.3379H59.0363V9.25768H66.8335L67.081 11.733C68.6817 9.75274 70.7857 8.76261 73.3931 8.76261C76.6935 8.76261 79.2596 9.98377 81.0913 12.4261C82.923 14.8519 83.8389 18.1936 83.8389 22.4511V22.8472ZM75.4971 22.3273C75.4971 17.5747 74.1109 15.1984 71.3386 15.1984C69.3583 15.1984 68.0381 15.908 67.3781 17.3272V27.872C68.1042 29.3572 69.4408 30.0998 71.3881 30.0998C74.0449 30.0998 75.4146 27.806 75.4971 23.2185V22.3273ZM96.3392 36.5356C99.3426 36.5356 101.727 35.4053 103.493 33.1445L103.74 36.0406H111.562V9.25768H103.171V28.0453C102.363 29.415 101.001 30.0998 99.0868 30.0998C96.8591 30.0998 95.7452 28.9529 95.7452 26.6591V9.25768H87.4034V26.6096C87.4034 29.811 88.1542 32.2699 89.6559 33.9861C91.1741 35.6858 93.4019 36.5356 96.3392 36.5356ZM130.177 28.5156C130.177 27.806 129.805 27.2367 129.063 26.8077C128.32 26.3786 126.909 25.933 124.83 25.471C122.751 25.0089 121.035 24.4066 119.681 23.664C118.328 22.9049 117.297 21.989 116.587 20.9164C115.878 19.8438 115.523 18.6144 115.523 17.2282C115.523 14.7694 116.538 12.7479 118.568 11.1637C120.272 9.81955 122.419 9.03976 125.007 8.82431V2.74128H128.983V8.90361C131.404 9.19751 133.428 9.95086 135.053 11.1637C137.198 12.7644 138.271 14.8684 138.271 17.4757H129.905C129.905 15.3304 128.774 14.2578 126.513 14.2578C125.639 14.2578 124.904 14.5053 124.31 15.0004C123.716 15.479 123.419 16.0813 123.419 16.8074C123.419 17.55 123.782 18.1523 124.508 18.6144C125.234 19.0764 126.39 19.456 127.974 19.753C129.574 20.05 130.977 20.4048 132.182 20.8174C136.208 22.2036 138.222 24.6871 138.222 28.2681C138.222 30.7104 137.132 32.6989 134.954 34.2336C133.328 35.388 131.338 36.1083 128.983 36.3943V42.5017H125.007V36.4713C123.324 36.326 121.788 35.9349 120.399 35.298C118.601 34.4729 117.198 33.3507 116.191 31.9316C115.185 30.5124 114.681 29.0189 114.681 27.4512H122.479C122.512 28.6889 122.924 29.5965 123.716 30.1741C124.508 30.7352 125.523 31.0157 126.761 31.0157C127.9 31.0157 128.749 30.7847 129.31 30.3226C129.888 29.8605 130.177 29.2582 130.177 28.5156ZM151.861 9.25768V2.59908H143.519V9.25768H140.103V15.0499H143.519V28.3424C143.519 31.0982 144.204 33.1527 145.573 34.5059C146.943 35.8591 149.063 36.5356 151.935 36.5356C153.569 36.5356 155.136 36.2964 156.638 35.8178V29.8523C156.077 29.9513 155.384 30.0008 154.559 30.0008C153.486 30.0008 152.768 29.8028 152.405 29.4067C152.042 29.0107 151.861 28.3093 151.861 27.3027V15.0499H156.267V9.25768H151.861ZM174.658 36.0406C174.361 35.496 174.097 34.6957 173.866 33.6395C172.331 35.5703 170.186 36.5356 167.43 36.5356C164.905 36.5356 162.76 35.7765 160.994 34.2584C159.229 32.7237 158.346 30.8012 158.346 28.4909C158.346 25.5865 159.419 23.3917 161.564 21.9065C163.709 20.4213 166.828 19.6788 170.92 19.6788H173.495V18.2678C173.495 15.809 172.43 14.5796 170.302 14.5796C168.321 14.5796 167.331 15.5532 167.331 17.5005H158.989C158.989 14.9096 160.087 12.8056 162.282 11.1884C164.493 9.57122 167.307 8.76261 170.722 8.76261C174.138 8.76261 176.836 9.59597 178.817 11.2627C180.797 12.9294 181.812 15.2149 181.861 18.1193V29.9761C181.894 32.4349 182.274 34.3161 183 35.6198V36.0406H174.658ZM169.435 30.5949C170.475 30.5949 171.333 30.3721 172.01 29.9266C172.703 29.481 173.198 28.9777 173.495 28.4166V24.1343H171.069C168.165 24.1343 166.712 25.438 166.712 28.0453C166.712 28.8044 166.968 29.4232 167.48 29.9018C167.991 30.3639 168.643 30.5949 169.435 30.5949Z" fill="black"/>
</svg>

<svg fill="none" xmlns="http://www.w3.org/2000/svg" viewBox="0 0 183 47"><path fill-rule="evenodd" clip-rule="evenodd" d="m8.688 26.535 3.565-3.91 7.673 13.416h10.298l-12.179-20.1L30.224 0H19.48l-7.773 11.312-3.02 4.58V0H0v36.04h8.688v-9.505Zm37.65 7.104c.23 1.057.495 1.857.792 2.402h8.342v-.421c-.726-1.304-1.106-3.185-1.139-5.644V18.12c-.05-2.904-1.064-5.19-3.044-6.856-1.98-1.667-4.679-2.5-8.095-2.5-3.416 0-6.23.808-8.44 2.425-2.195 1.618-3.293 3.722-3.293 6.312h8.342c0-1.947.99-2.92 2.97-2.92 2.13 0 3.194 1.229 3.194 3.688v1.41h-2.575c-4.092 0-7.211.743-9.356 2.229-2.146 1.485-3.218 3.68-3.218 6.584 0 2.31.883 4.233 2.648 5.767 1.766 1.518 3.911 2.278 6.436 2.278 2.756 0 4.901-.966 6.436-2.897Zm-1.857-3.712c-.676.445-1.534.668-2.574.668-.792 0-1.444-.231-1.955-.693-.512-.479-.768-1.098-.768-1.857 0-2.607 1.452-3.91 4.357-3.91h2.426v4.282c-.297.56-.792 1.064-1.486 1.51Zm39.358-7.08c0 4.159-.94 7.484-2.822 9.976-1.865 2.475-4.39 3.713-7.574 3.713-2.46 0-4.48-.9-6.065-2.698v12.5h-8.342V9.258h7.797l.248 2.475c1.6-1.98 3.705-2.97 6.312-2.97 3.3 0 5.867 1.22 7.698 3.663 1.832 2.426 2.748 5.768 2.748 10.025v.396Zm-8.342-.52c0-4.752-1.386-7.129-4.158-7.129-1.98 0-3.3.71-3.96 2.13v10.544c.725 1.485 2.062 2.228 4.01 2.228 2.656 0 4.026-2.294 4.108-6.882v-.89ZM96.34 36.536c3.004 0 5.388-1.13 7.154-3.392l.247 2.897h7.822V9.258h-8.391v18.787c-.808 1.37-2.17 2.055-4.084 2.055-2.228 0-3.342-1.147-3.342-3.44V9.257h-8.342V26.61c0 3.201.751 5.66 2.253 7.376 1.518 1.7 3.746 2.55 6.683 2.55Zm33.838-8.02c0-.71-.372-1.28-1.114-1.708-.743-.43-2.154-.875-4.233-1.337-2.079-.462-3.795-1.064-5.149-1.807-1.353-.76-2.384-1.675-3.094-2.748-.709-1.072-1.064-2.302-1.064-3.688 0-2.459 1.015-4.48 3.045-6.064 1.704-1.344 3.851-2.124 6.439-2.34V2.741h3.976v6.163c2.421.294 4.445 1.047 6.07 2.26 2.145 1.6 3.218 3.704 3.218 6.312h-8.366c0-2.146-1.131-3.218-3.392-3.218-.874 0-1.609.247-2.203.742-.594.479-.891 1.081-.891 1.807 0 .743.363 1.345 1.089 1.807.726.462 1.882.842 3.466 1.139 1.6.297 3.003.652 4.208 1.064 4.026 1.387 6.04 3.87 6.04 7.451 0 2.442-1.09 4.43-3.268 5.966-1.626 1.154-3.616 1.874-5.971 2.16v6.108h-3.976v-6.03c-1.683-.146-3.219-.537-4.608-1.174-1.798-.825-3.201-1.947-4.208-3.366-1.006-1.42-1.51-2.913-1.51-4.48h7.798c.033 1.237.445 2.144 1.237 2.722.792.561 1.807.842 3.045.842 1.139 0 1.988-.231 2.549-.693.578-.463.867-1.065.867-1.807Zm21.684-19.258V2.599h-8.342v6.659h-3.416v5.792h3.416v13.292c0 2.756.685 4.81 2.054 6.164 1.37 1.353 3.49 2.03 6.362 2.03 1.634 0 3.201-.24 4.703-.718v-5.966c-.561.1-1.254.149-2.079.149-1.073 0-1.791-.198-2.154-.594-.363-.396-.544-1.098-.544-2.104V15.05h4.406V9.258h-4.406Zm22.797 26.783c-.297-.545-.561-1.345-.792-2.401-1.535 1.93-3.68 2.896-6.436 2.896-2.525 0-4.67-.76-6.436-2.278-1.765-1.534-2.648-3.457-2.648-5.767 0-2.904 1.073-5.1 3.218-6.584 2.145-1.486 5.264-2.228 9.356-2.228h2.575v-1.411c0-2.459-1.065-3.688-3.193-3.688-1.981 0-2.971.973-2.971 2.92h-8.342c0-2.59 1.098-4.694 3.293-6.312 2.211-1.617 5.025-2.425 8.44-2.425 3.416 0 6.114.833 8.095 2.5 1.98 1.666 2.995 3.952 3.044 6.856v11.857c.033 2.459.413 4.34 1.139 5.644v.42h-8.342Zm-5.223-5.446c1.04 0 1.898-.223 2.575-.668.693-.446 1.188-.95 1.485-1.51v-4.283h-2.426c-2.904 0-4.357 1.304-4.357 3.911 0 .76.256 1.378.768 1.857.511.462 1.163.693 1.955.693Z" fill="#000"/></svg>
